X:3308
T:Concertina, The
R:hornpipe
M:4/4
L:1/8
K:G
"G"GABc defa|~g2 dc BG G2|"Em7"FGAB cdec|"C6"BGAG "D7"~F2 D2|
"G"GABc defa|~g2 dc BG G2|"Em7"FGAB "C"cAGF|1 "D7"DGGF "G"G2 D2:|2 "D7"DGGF "G"GABc|
|:"G"d2 (3ed^c d=cBc|"Em7"defa gedB|"Am"c2 B2 ceag|"D7"fd ~d2 cAFA|
"G"dB ~B2 dcBc|"Em7"defa gedc|"C6"Bdgd "Am"cAGF|1 "D7"DGGF "G"GABc:|2 "D7"DGGF "G"G2 D2||


